svg/format_list_group_plus.svg

<svg xmlns="http://www.w3.org/2000/svg" viewBox="0 0 24 24"><path d="M17 14v3h-3v2h3v3h2v-3h3v-2h-3v-3m1-3v1.3c-.6-.2-1.3-.3-2-.3-1.2 0-2.4.4-3.3 1H7v-2zm-7.9 6H7v-2h5.8c-.3.6-.6 1.3-.7 2M7 7h13v2H7zM5 19h2v2H3V3h4v2H5z"/></svg>

<svg xmlns="http://www.w3.org/2000/svg" id="mdi-format-list-group-plus" viewBox="0 0 24 24"><path d="M17 14V17H14V19H17V22H19V19H22V17H19V14M20 11V12.3C19.4 12.1 18.7 12 18 12C16.8 12 15.6 12.4 14.7 13H7V11H20M12.1 17H7V15H12.8C12.5 15.6 12.2 16.3 12.1 17M7 7H20V9H7V7M5 19H7V21H3V3H7V5H5V19Z" /></svg>
